!! J.S. Bach "Fuga, Allegro" from Sonata No. 1, for solo violin, BWV 1001.
!! From 'Neue Ausgabe Saemtlicher Werke' Serie VI: Kammermusikwerke,
!! Band 1 ('Werke fuer Violine') Baerenreiter Kassel (Basel) 1958; pp.4-6
!! This file has been error-checked using the double-entry method.
!! NOTE:  This 'monophonic' work has been recoded here as a four-part work.
!! NOTE:  A considerable degree of latitude has been exercised in the
!!        assignment of parts and voices.
**kern	**kern	**kern	**kern
*M2/2	*M2/2	*M2/2	*M2/2
=1	=1	=1	=1
1r	1r	8r	1r
.	.	8dd	.
.	.	8dd	.
.	.	8dd	.
.	.	8dd	.
.	.	16cc	.
.	.	16b-	.
.	.	8cc	.
.	.	8a	.
=2	=2	=2	=2
1r	8r	8b-	1r
.	8g	8r	.
.	8g	8ee-	.
.	8g	8r	.
.	8g	8a	.
.	16f	8r	.
.	16e-	.	.
.	8f	8dd	.
.	8d	8r	.
=3	=3	=3	=3
1r	8e-	8dd	8r
.	8r	8r	8gg
.	8e-	8cc	8gg
.	8r	8r	8gg
.	8d	8b-	8gg
.	8r	8r	16ff
.	.	.	16ee-
.	8d	8a	8ff
.	8r	8r	8dd
=4	=4	=4	=4
1r	2r	8g	8ee-
.	.	8G	4.r
.	.	16c	.
.	.	{16b-	.
.	.	16a	.
.	.	32b-	.
.	.	32cc}	.
.	8c	8f#	8r
.	8r	8r	8dd
.	8B-	8g	8dd
.	8r	8r	8dd
=5	=5	=5	=5
1r	8A	8e	8dd
.	8r	8r	16cc
.	.	.	16b-
.	8d	8f#	8cc
.	8r	8r	8a
.	8G	8g	8b-
.	8r	16fn	8r
.	.	16e-	.
.	8dd	8f	8bb-
.	8r	8d	8r
=6	=6	=6	=6
1r	8cc	8e-	8bb-
.	4.r	4.r	16aa
.	.	.	16gg
.	.	.	{16aa
.	.	.	16ff#}
.	.	.	8gg
.	16cc	16d	16ff
.	16ee-	8.r	8.r
.	16dd	.	.
.	16cc	.	.
.	16b-	4r	4r
.	16gg	.	.
.	16a	.	.
.	16g	.	.
=7	=7	=7	=7
1r	16d	1r	1r
.	16a	.	.
.	16cc#	.	.
.	16een	.	.
.	16ffn	.	.
.	16aa	.	.
.	16dd	.	.
.	16ccn	.	.
.	16bn	.	.
.	16dd	.	.
.	16ff	.	.
.	16aa-	.	.
.	16gg	.	.
.	16ff	.	.
.	16ee-	.	.
.	16dd	.	.
=8	=8	=8	=8
1r	16ee-	1r	1r
.	16g	.	.
.	16cc	.	.
.	16dd	.	.
.	16ee-	.	.
.	16gg	.	.
.	16cc	.	.
.	16b-	.	.
.	16a	.	.
.	16cc	.	.
.	16ee-	.	.
.	16gg	.	.
.	16ff	.	.
.	16ee-	.	.
.	16dd	.	.
.	16cc	.	.
=9	=9	=9	=9
1r	16dd	1r	1r
.	16a	.	.
.	16b-	.	.
.	16f#	.	.
.	16g	.	.
.	16b-	.	.
.	16dd	.	.
.	16fn	.	.
.	16e	.	.
.	16g	.	.
.	16b-	.	.
.	16dd	.	.
.	16cc	.	.
.	16a	.	.
.	16b-	.	.
.	16g	.	.
=10	=10	=10	=10
1r	16f#	1r	1r
.	16a	.	.
.	16cc	.	.
.	16ee-	.	.
.	16dd	.	.
.	16cc	.	.
.	16b-	.	.
.	16a	.	.
.	16b-	.	.
.	16g	.	.
.	16dd	.	.
.	16fn	.	.
.	16e-	.	.
.	16dd	.	.
.	16gg	.	.
.	16cc	.	.
=11	=11	=11	=11
1r	8dd	8ff#	4r
.	8d	8r	.
.	8g	8dd	8bb-
.	8g	8dd	8bb-
.	8e-	8cc	8bb-
.	8r	8r	16aa
.	.	.	16gg
.	8fn	8cc	8aa
.	8f	8cc	8aa
=12	=12	=12	=12
1r	8d	8b-	16aa-
.	.	.	{16gg
.	8r	8r	16aa}
.	.	.	16ff#
.	8e-	8b-	8gg
.	8d	8bn	8ffn
.	8c	{16g	8ee-
.	.	16f}	.
.	4.r	{16f	8dd
.	.	16e-}	.
.	.	16e-	8cc
.	.	16d	.
.	.	16d	8b-
.	.	16c	.
=13	=13	=13	=13
1r	1r	8c	{16a-
.	.	.	16f#}
.	.	4.r	{16f#
.	.	.	16g}
.	.	.	16g
.	.	.	16B-
.	.	.	16An
.	.	.	16G
.	.	2r	16A
.	.	.	16g
.	.	.	16cc
.	.	.	16ee-
.	.	.	16d
.	.	.	16g
.	.	.	16an
.	.	.	16f#
=14	=14	=14	=14
1r	8G	1r	8g
.	4.r	.	8ddd
.	.	.	8ddd
.	.	.	8ddd
.	2r	.	8ddd
.	.	.	16ccc
.	.	.	16bb-
.	.	.	8ccc
.	.	.	8aa
=15	=15	=15	=15
1r	1r	8r	8bb-
.	.	8gg	8r
.	.	8gg	8eee-
.	.	8gg	8r
.	.	8gg	8aa
.	.	16ff	8r
.	.	16ee-	.
.	.	8ff	[4ddd
.	.	8dd	.
=16	=16	=16	=16
1r	1r	8ee-	8ddd]
.	.	16ee-	8ccc
.	.	16dd	.
.	.	8ee-	8ccc
.	.	16ff	8ccc
.	.	16ee-	.
.	.	8dd	8ccc
.	.	8r	16bb-
.	.	.	16aa
.	.	8gg	8bb-
.	.	8r	8gg
=17	=17	=17	=17
1r	1r	8gg	8aa
.	.	8ff	8r
.	.	8ff	8ddd
.	.	8ff	8r
.	.	8ff	8gg
.	.	16ee-	8r
.	.	16dd	.
.	.	8ee-	[4ccc
.	.	8cc	.
=18	=18	=18	=18
1r	1r	8dd	8ccc]
.	.	16dd	8bb-
.	.	16cc	.
.	.	8dd	8bb-
.	.	16ee-	8bb-
.	.	16dd	.
.	.	8cc	8bb-
.	.	8r	16aa
.	.	.	16gg
.	.	8ff	8aa
.	.	8r	16bb-
.	.	.	16aa
=19	=19	=19	=19
1r	1r	8ff	8gg
.	.	16ee-	8r
.	.	16dd	.
.	.	8ee-	8ccc
.	.	16ff	8r
.	.	16ee-	.
.	.	8dd	8ccc
.	.	8r	16bb-
.	.	.	16aa
.	.	8gg	8bb-
.	.	8r	16ccc
.	.	.	16bb-
=20	=20	=20	=20
1r	2r	8gg	8aa
.	.	16ff	8r
.	.	16een	.
.	.	8ff	8ddd
.	.	16gg	8r
.	.	16ff	.
.	8r	8ee	8ddd
.	8a	8r	8r
.	8a	8ee	8ccc
.	8a	8r	8r
=21	=21	=21	=21
1r	8a	8dd	8ff
.	16g	8r	8r
.	16f	.	.
.	8g	8cc#	8bb-
.	8e	8r	8r
.	8f	8dd	8aa
.	8d	8dd	8ff
.	8e	8dd	8gg
.	8f	8dd	8aa
=22	=22	=22	=22
2r	8g	8dd	8bb-
.	8f	8dd	8aa
.	8e	8dd	8gg
.	8r	16cc#	8r
.	.	16bn	.
8A	8e	8cc#	8gg
8r	4.r	8r	16ff
.	.	.	16ee
8d	.	8dd	8ff
8d	.	8a	8ff
=23	=23	=23	=23
8G	8d	8b-	8ff
8r	4.r	8r	16ee
.	.	.	16dd
8r	.	8r	8ee
8A	.	8a	8cc#
8B-	2r	8a	8dd
8r	.	16g	8r
.	.	16f	.
8r	.	8g	8r
8G	.	8e	8dd
=24	=24	=24	=24
8A	2.r	16f	8dd
.	.	16e	.
4.r	.	16d	8r
.	.	16e	.
.	.	8.e	8.cc#
.	.	16d	16dd
2r	.	8d	8dd
.	.	8d	4.r
.	8d	8d	.
.	8r	8d	.
=25	=25	=25	=25
1r	8d	8e	1r
.	16c	8r	.
.	16B-	.	.
.	8c	8r	.
.	8A	8f#	.
.	8B-	8g	.
.	8r	8g	.
.	8G	8g	.
.	8r	8g	.
=26	=26	=26	=26
1r	8A	8g	2r
.	8r	16fn	.
.	.	16e-	.
.	8r	8f	.
.	8Bn	8d	.
.	8c	8e-	8r
.	8r	8r	8cc
.	8A	8en	8cc
.	8r	8r	8cc
=27	=27	=27	=27
1r	8d	8f#	8cc
.	4.r	8r	16b-
.	.	.	16a
.	.	8g	8b-
.	.	8r	16cc
.	.	.	16b-
.	8d	8g	8a
.	4.r	16fn	8r
.	.	16e	.
.	.	8f	8dd
.	.	16g	8r
.	.	16f	.
=28	=28	=28	=28
1r	8G#	8e	8dd
.	4.r	4.r	{16ee
.	.	.	16ff}
.	.	.	{16ee
.	.	.	16dd}
.	.	.	{16cc#
.	.	.	16dd}
.	8Gn	8e	8cc#
.	8r	8r	8aa
.	8f	8dd	8aa
.	8r	8r	8aa
=29	=29	=29	=29
1r	8b-	8dd	8aa
.	8r	8r	16gg
.	.	.	16ff
.	8r	8r	8gg
.	8e	8dd	8gg
.	8a	8cc#	8gg
.	8r	8r	16ff
.	.	.	16ee
.	8r	8r	8ff
.	8d	8dd	8ff
=30	=30	=30	=30
2.r	8g	8dd	{8bb-
.	8r	8r	8aa}
.	8f	8dd	{8aa
.	8r	8r	8gg#}
.	8e	8dd	{8gg#
.	8r	8r	8aa}
8A	8e	8cc#	{8aa
8r	8r	8r	8ff#}
=31	=31	=31	=31
8d	2r	8ccn	{8ff#
8r	.	8r	8ggn}
8d	.	8bn	{8gg
8r	.	8r	8ee}
8c#	8g	8b-	{8ee
8r	8r	8r	8ffn}
8d	8f	8a	{8ff
8r	8r	8r	8dd}
=32	=32	=32	=32
8B-	1r	8a	{8dd
8r	.	8r	8ee-}
8B-	.	8g	{8ee-
8r	.	8r	8cc#}
8A	.	8g	8cc#
8r	.	8r	{16bb-
.	.	.	16gg#}
8r	.	8r	8aa
8A	.	8gn	8cc#
=33	=33	=33	=33
8A	4.r	8f	8dd
4.r	.	8r	{16bb-
.	.	.	16gg#}
.	.	8r	8aa
.	8a	8ggn	8ccc#
2r	8b-	8ff	{8ddd
.	8r	8r	8cccn}
.	8a	8ff#	{8ccc
.	8r	8r	8bb-}
=34	=34	=34	=34
1r	8g	8gg	{8bb-
.	4.r	8ffn	8aa}
.	.	8ff	{8aa
.	.	8ee	8ccc#}
.	2r	{8ee	{8ccc#
.	.	8ff}	8ddd}
.	.	{8ff	8ddd
.	.	8cc#}	8gg
=35	=35	=35	=35
1r	4.r	{8cc#	8.gg
.	.	8a}	.
.	.	.	16aa
.	.	8dd	8ff
.	8g	8dd	8ee
.	8a	2dd	2ee
.	8g	.	.
.	8a	.	.
.	8f	.	.
=36	=36	=36	=36
1r	8g	2cc#	2ee
.	8f	.	.
.	8g	.	.
.	8e	.	.
.	8f	2dd	8aa
.	8e	.	8gg
.	8f	.	8aa
.	8d	.	8ff
=37	=37	=37	=37
1r	2e	8dd	2gg
.	.	8cc#	.
.	.	8dd	.
.	.	8bn	.
.	2a	2cc#	8gg
.	.	.	8ff
.	.	.	8gg
.	.	.	8ee
=38	=38	=38	=38
1r	2d	8dd	8ff
.	.	8cc#	8ee
.	.	8dd	8ff
.	.	8ee	8gg
.	2d	8ff	8aa
.	.	8gg	8bb-
.	.	8ff	8aa
.	.	8ee	8gg
=39	=39	=39	=39
1r	2d	8dd	8ff
.	.	8cc#	8ee
.	.	8dd	8ff
.	.	8ee	8gg
.	2d	8ff	8aa
.	.	8ee	8gg
.	.	8ff	8aa
.	.	8dd	8bbn
=40	=40	=40	=40
1r	2d	8ee	8ccc#
.	.	8dd	8bbn
.	.	8ee	8ccc#
.	.	8ff	8ddd
.	2d	8gg	8eee
.	.	8aa	8fff
.	.	8gg	8eee
.	.	8ff	8ddd
=41	=41	=41	=41
1r	2d	8ee	8ccc#
.	.	8dd	8bbn
.	.	8ee	8ccc#
.	.	8ff	8ddd
.	2d	8gg	8eee
.	.	8ff	8ddd
.	.	8gg	8eee
.	.	8ee	8ccc#
=42	=42	=42	=42
1r	1r	1r	16d
.	.	.	16dd
.	.	.	16ff
.	.	.	16aa
.	.	.	16ddd
.	.	.	16aa
.	.	.	16ff
.	.	.	16dd
.	.	.	16a
.	.	.	16ddd
.	.	.	16cccn
.	.	.	16bb-
.	.	.	16ccc
.	.	.	16aa
.	.	.	16ff#
.	.	.	16dd
=43	=43	=43	=43
1r	1r	1r	16G
.	.	.	16g
.	.	.	16b-
.	.	.	16dd
.	.	.	16gg
.	.	.	16dd
.	.	.	16b-
.	.	.	16g
.	.	.	16d
.	.	.	16gg
.	.	.	16ffn
.	.	.	16ee-
.	.	.	16ff
.	.	.	16dd
.	.	.	16bn
.	.	.	16g
=44	=44	=44	=44
1r	1r	1r	16c
.	.	.	16cc
.	.	.	16ee-
.	.	.	16gg
.	.	.	16ccc
.	.	.	16gg
.	.	.	16ee-
.	.	.	16cc
.	.	.	16g
.	.	.	16ccc
.	.	.	16bb-
.	.	.	16aa
.	.	.	16bb-
.	.	.	16gg
.	.	.	16een
.	.	.	16cc
=45	=45	=45	=45
1r	1r	1r	16f
.	.	.	16cc
.	.	.	16ff
.	.	.	16gg
.	.	.	16aa-
.	.	.	16ff
.	.	.	16dd
.	.	.	16b-
.	.	.	16e-
.	.	.	16b-
.	.	.	16ee-
.	.	.	16ff
.	.	.	16gg
.	.	.	16ee-
.	.	.	16cc
.	.	.	16an
=46	=46	=46	=46
1r	1r	1r	16ff
.	.	.	16dd
.	.	.	16bn
.	.	.	16g
.	.	.	16ee-
.	.	.	16cc
.	.	.	16a-
.	.	.	16f
.	.	.	16dd-
.	.	.	16b-
.	.	.	16g
.	.	.	16e-
.	.	.	16cc
.	.	.	16a-
.	.	.	16f
.	.	.	16dn
=47	=47	=47	=47
1r	1r	1r	16G
.	.	.	16d
.	.	.	16f
.	.	.	16bn
.	.	.	16ddn
.	.	.	16b
.	.	.	16f
.	.	.	16d
.	.	.	16G
.	.	.	16d
.	.	.	16f
.	.	.	16b
.	.	.	16dd
.	.	.	16b
.	.	.	16f
.	.	.	16d
=48	=48	=48	=48
1r	1r	1r	16G
.	.	.	16c
.	.	.	16e-
.	.	.	16g
.	.	.	16cc
.	.	.	16g
.	.	.	16e-
.	.	.	16c
.	.	.	16G
.	.	.	16c
.	.	.	16e-
.	.	.	16g
.	.	.	16cc
.	.	.	16g
.	.	.	16e-
.	.	.	16c
=49	=49	=49	=49
1r	1r	1r	16A-
.	.	.	16c
.	.	.	16e-
.	.	.	16g
.	.	.	16cc
.	.	.	16g
.	.	.	16e-
.	.	.	16c
.	.	.	16A-
.	.	.	16c
.	.	.	16e-
.	.	.	16g
.	.	.	16cc
.	.	.	16g
.	.	.	16e-
.	.	.	16c
=50	=50	=50	=50
1r	1r	1r	16An
.	.	.	16d
.	.	.	16f#
.	.	.	16a
.	.	.	16cc
.	.	.	16a
.	.	.	16f#
.	.	.	16d
.	.	.	16A
.	.	.	16d
.	.	.	16f#
.	.	.	16a
.	.	.	16cc
.	.	.	16a
.	.	.	16f#
.	.	.	16d
=51	=51	=51	=51
1r	1r	1r	16G
.	.	.	16c
.	.	.	16e-
.	.	.	16g
.	.	.	16cc
.	.	.	{16ee-
.	.	.	16dd-}
.	.	.	{16bn
.	.	.	16cc}
.	.	.	{16bb-
.	.	.	16aa-}
.	.	.	{16ff#
.	.	.	16gg}
.	.	.	{16ffn
.	.	.	16een
.	.	.	16ff}
=52	=52	=52	=52
8G	8d	8bn	8ff
4.r	8g	8r	8r
.	8g	8ee-	8ccc
.	8g	8r	8r
8G	8g	8ddn	8ccc
4.r	16f	8r	8r
.	16e-	.	.
.	8f	8dd	8bbn
.	8d	8ff	8ddd
=53	=53	=53	=53
8G	{16e-	4.r	4.r
.	16dd	.	.
4.r	16gg}	.	.
.	16bn	.	.
.	8cc	.	.
.	8e-	8cc	8gg
8G	8d	8cc	8gg
4.r	8r	8r	16ff
.	.	.	16ee-
.	8g	8bn	8ff
.	8r	8r	8dd
=54	=54	=54	=54
1r	8c	8g	8ee-
.	8r	8r	16dd
.	.	.	16cc
.	8A-	8f	8dd-
.	8r	8r	8bn
.	8An	8f#	8.cc
.	8r	8r	.
.	.	.	16ddn
.	8G	8d	8.b
.	8r	8r	.
.	.	.	16cc
=55	=55	=55	=55
1r	8c	8e-	8cc
.	4.r	8c	4.r
.	.	8c	.
.	.	8c	.
.	8c	8d	2r
.	16B-	8r	.
.	16A	.	.
.	8B-	8r	.
.	8G	8en	.
=56	=56	=56	=56
1r	8A	8f	1r
.	8r	8f	.
.	8f	8a	.
.	8f	8r	.
.	8f	8b-	.
.	16e-	8r	.
.	16d	.	.
.	8e-	8cc	.
.	8c	8r	.
=57	=57	=57	=57
4r	8d	8cc	8r
.	8r	16b-	8ff
.	.	16a	.
8G	8g	8b-	8ff
8r	8r	8r	8ff
8c	8g	8b-	8ff
4.r	8r	4.r	16ee-
.	.	.	16dd
.	8r	.	8ee-
.	8f	.	16cc
.	.	.	{32dd
.	.	.	32ee-}
=58	=58	=58	=58
8r	8b-	8r	8dd
8B-	8f	8dd	8bb-
8B-	8f	8dd	8bb-
8B-	8f	8dd	8bb-
2r	8f	8dd	8bb-
.	4.r	16cc	16aa
.	.	16b-	16gg
.	.	8cc	8aa
.	.	8dd	8bbn
=59	=59	=59	=59
8r	8r	8ee-	8ccc
8c	8g	8ee-	8ccc
8c	8g	8ee-	8ccc
8c	8g	8ee-	8ccc
2r	8g	8ee-	8ccc
.	4.r	16dd	16bb-
.	.	16cc	16aa
.	.	8dd	8bb-
.	.	8ee-	16ccc
.	.	.	16gg
=60	=60	=60	=60
1r	8f	8ee-	8aa
.	8r	8dd	{16bb-
.	.	.	16ff}
.	8e-	8dd	8gg
.	8r	8cc	{16aa
.	.	.	16gg}
.	8d	8cc	8ff
.	4.r	8b-	16gg
.	.	.	16dd
.	.	4r	16ee-
.	.	.	16cc
.	.	.	16a
.	.	.	16f
=61	=61	=61	=61
1r	8r	8r	8B-
.	8B-	8f	8dd
.	8B-	8f	8dd
.	8A	8f	8dd
.	8G	8f	8dd
.	8r	16g	16ee-
.	.	16f	16dd
.	8A	8e-	8cc
.	8B-	8d	8b-
=62	=62	=62	=62
2r	8c	8e-	8a
.	8d	8b-	8ff
.	8d	8b-	8ff
.	8d	8b-	8ff
8G	8d	8b-	8ff
8r	8r	4.r	16gg
.	.	.	16ff
8A	8f	.	8ee-
8B-	8f	.	8dd
=63	=63	=63	=63
8e-	8e-	8dd	8gg
4.r	4.r	8r	{16aa
.	.	.	16bb-}
.	.	8cc	{16bb-
.	.	.	16aa
.	.	8r	16gg
.	.	.	16ff}
2r	8r	8r	8bb-
.	8d	8b-	8ff
.	8f	4r	16ee-
.	.	.	{16dd
.	8r	.	16cc}
.	.	.	16b-
=64	=64	=64	=64
1r	1r	1r	16B-
.	.	.	16dd
.	.	.	16cc
.	.	.	16dd
.	.	.	{16b-
.	.	.	16dd}
.	.	.	{16a
.	.	.	16dd}
.	.	.	{16g
.	.	.	16dd}
.	.	.	{16f
.	.	.	16dd}
.	.	.	{16e-
.	.	.	16dd}
.	.	.	{16d
.	.	.	16dd}
=65	=65	=65	=65
1r	1r	1r	{16e-
.	.	.	16dd
.	.	.	16gg}
.	.	.	16ff
.	.	.	16ee-
.	.	.	16dd
.	.	.	16cc
.	.	.	16b-
.	.	.	{16a
.	.	.	16cc}
.	.	.	{16g
.	.	.	16cc}
.	.	.	{16f#
.	.	.	16cc}
.	.	.	{16en
.	.	.	16cc}
=66	=66	=66	=66
1r	1r	1r	{16d
.	.	.	16cc
.	.	.	16aa}
.	.	.	16cc
.	.	.	16b-
.	.	.	16a
.	.	.	16b-
.	.	.	16g
.	.	.	16a
.	.	.	16d
.	.	.	16ff
.	.	.	16a-
.	.	.	16g
.	.	.	16fn
.	.	.	16g
.	.	.	16e-
=67	=67	=67	=67
1r	1r	1r	16f
.	.	.	16B-
.	.	.	16dd
.	.	.	16f
.	.	.	16e-
.	.	.	16d
.	.	.	16e-
.	.	.	16c
.	.	.	16d
.	.	.	16G
.	.	.	16b-
.	.	.	16d
.	.	.	16e-
.	.	.	16c
.	.	.	16cc
.	.	.	16en
=68	=68	=68	=68
1r	1r	1r	16f#
.	.	.	16d
.	.	.	16a
.	.	.	16f#
.	.	.	16cc
.	.	.	16a
.	.	.	16ee-
.	.	.	16cc
.	.	.	16ff#
.	.	.	16cc
.	.	.	{16aa
.	.	.	16ff#
.	.	.	16ee-
.	.	.	16cc
.	.	.	16a
.	.	.	16f#}
=69	=69	=69	=69
1r	1r	1r	{16d
.	.	.	16cc
.	.	.	16ff#}
.	.	.	16cc
.	.	.	16ff#
.	.	.	16cc
.	.	.	16aa
.	.	.	16cc
.	.	.	{16d
.	.	.	16cc
.	.	.	16ff#}
.	.	.	16cc
.	.	.	16ff#
.	.	.	16cc
.	.	.	16aa
.	.	.	16cc
=70	=70	=70	=70
1r	1r	1r	{16d
.	.	.	16b-
.	.	.	16dd}
.	.	.	16b-
.	.	.	16dd
.	.	.	16b-
.	.	.	16gg
.	.	.	16b-
.	.	.	{16d
.	.	.	16b-
.	.	.	16dd}
.	.	.	16b-
.	.	.	16dd
.	.	.	16b-
.	.	.	16gg
.	.	.	16b-
=71	=71	=71	=71
1r	1r	1r	{16d
.	.	.	16a
.	.	.	16ff#}
.	.	.	16dd
.	.	.	16ff#
.	.	.	16dd
.	.	.	16ccc
.	.	.	16dd
.	.	.	{16d
.	.	.	16dd
.	.	.	16ff#}
.	.	.	16dd
.	.	.	16ff#
.	.	.	16dd
.	.	.	16ccc
.	.	.	16dd
=72	=72	=72	=72
1r	1r	1r	{16d
.	.	.	16dd
.	.	.	16gg}
.	.	.	16dd
.	.	.	16gg
.	.	.	16dd
.	.	.	16bb-
.	.	.	16dd
.	.	.	{16d
.	.	.	16dd
.	.	.	16gg}
.	.	.	16dd
.	.	.	16gg
.	.	.	16dd
.	.	.	16bb-
.	.	.	16dd
=73	=73	=73	=73
1r	1r	1r	{16d
.	.	.	16cc#
.	.	.	16ee}
.	.	.	16cc#
.	.	.	16ee
.	.	.	16cc#
.	.	.	16bb-
.	.	.	16cc#
.	.	.	{16d
.	.	.	16cc#
.	.	.	16ee}
.	.	.	16cc#
.	.	.	16ee
.	.	.	16cc#
.	.	.	16bb-
.	.	.	16gg
=74	=74	=74	=74
4.r	1r	4.r	{16gg
.	.	.	16ff#}
.	.	.	{16ee
.	.	.	16dd}
.	.	.	8ddd
8b-	.	8dd	8ddd
8g	.	8ee-	8ddd
8r	.	8r	16ccc
.	.	.	16bb-
8r	.	8r	8ccc
8a	.	8a	8ccc
=75	=75	=75	=75
8f#	1r	8dd	8ccc
8r	.	8r	16bb-
.	.	.	16aa
8r	.	8r	8bb-
8g	.	8dd	8bb-
8e-	.	8dd	{8bb-
8r	.	8r	8aa}
8en	.	8cc#	{8aa
8r	.	8r	8gg}
=76	=76	=76	=76
8d	2r	8ccn	{8ff#
4.r	.	8r	8gg}
.	.	8b-	{8gg
.	.	8r	8een}
8c	8g	8b-	{8ee
4.r	4.r	8r	8ffn}
.	.	8a	{8ff
.	.	8r	8dd}
=77	=77	=77	=77
8B-	1r	8a	8dd
4.r	.	8r	{16ee-
.	.	.	16dd}
.	.	16g	16ee-
.	.	8.r	16gg
.	.	.	16bb-
.	.	.	16dd
16A	.	16g	16cc#
8.r	.	8.r	{16een
.	.	.	16aa}
.	.	.	16cc#
4r	.	8f	16dd
.	.	.	16ff
.	.	8r	16aa
.	.	.	16ccn
=78	=78	=78	=78
16G	1r	16f	16bn
8.r	.	8.r	{16aa-
.	.	.	16gg
.	.	.	16ff}
4r	.	4r	16gg
.	.	.	16dd
.	.	.	16ee-
.	.	.	16b
16G	.	16e-	16cc
8.r	.	8.r	{16aa-
.	.	.	16gg
.	.	.	16ff}
4r	.	4r	16gg
.	.	.	16dd
.	.	.	16ee-
.	.	.	16cc
=79	=79	=79	=79
16A	1r	1r	16f#
8.r	.	.	16a
.	.	.	16cc
.	.	.	{16ee-
2.r	.	.	16dd
.	.	.	16cc}
.	.	.	16aa
.	.	.	{16cc
.	.	.	16dd
.	.	.	16ee-}
.	.	.	{16a
.	.	.	16b-
.	.	.	16cc}
.	.	.	16f#
.	.	.	16g
.	.	.	16a
=80	=80	=80	=80
4r	1r	4r	8B-
.	.	.	8dd
8Bn	.	8fn	8dd
8r	.	8r	8dd
8c	.	8e-	8dd
4.r	.	16e-	16cc
.	.	16dn	16bn
.	.	8e-	8cc
.	.	8r	8aa
=81	=81	=81	=81
8d	1r	8f#	8cc
4.r	.	16a	16cc
.	.	16g	16b-
.	.	8a	8cc
.	.	8r	8aa
8d	.	8a	8b-
4.r	.	16g	16b-
.	.	16f#	16a
.	.	8g	8b-
.	.	8r	8gg
=82	=82	=82	=82
8.e	1r	8.cc#	8.bb-
16r	.	16r	16aa
4r	.	4r	16gg
.	.	.	16ff#
.	.	.	16gg
.	.	.	16aa
8d	.	8ccn	8ff#
8d	.	8b-	8gg
8d	.	8b-	8gg
8d	.	8b-	8gg
=83	=83	=83	=83
8d	4r	8a	8gg
16c	.	8r	8r
16B-	.	.	.
8c	8d	8a	8ff#
8A	8r	8r	8r
8Bn	8g	8dd	8ffn
{16c	8r	4.r	8r
16B}	.	.	.
8c	8g	.	8ee-
8G	8r	.	8r
=84	=84	=84	=84
8A	8f	4r	8ee-
{16B-	8r	.	8r
16A}	.	.	.
8B-	2.r	8f	8dd
8d	.	8dd	8bb-
8e-	.	8dd	8gg
8r	.	16cc	16aa-
.	.	16b-	16gg
8r	.	8cc	16aa-
.	.	.	16ff#
8e-	.	8cc	8gg
=85	=85	=85	=85
8d	1r	8cc	8ff#
8r	.	{16ee-	8r
.	.	16cc}	.
8r	.	8dd	8r
8d	.	8a	8ff#
8d	.	8b-	8gg
8r	.	{16ee-	8aa
.	.	16cc}	.
8r	.	8dd	8bb-
8d	.	8a	8ff#
=86	=86	=86	=86
8e-	4.r	8a	8ff#
8d	.	8b-	8gg
8d	.	8b-	8gg
8c#	8en	8a	8gg
8d	2r	8.b-	8.gg
4.r	.	.	.
.	.	16ccn	16aa
.	.	8.a	8.ff#
.	.	16r	16gg
=87	=87	=87	=87
16G	1r	1r	1r
16g	.	.	.
16b-	.	.	.
16dd	.	.	.
16gg	.	.	.
16dd	.	.	.
16b-	.	.	.
16g	.	.	.
16a	.	.	.
16gg	.	.	.
16ffn	.	.	.
16ee-	.	.	.
16ff	.	.	.
16dd	.	.	.
16bn	.	.	.
16g	.	.	.
=88	=88	=88	=88
16G	1r	1r	1r
16g	.	.	.
16cc	.	.	.
16dd	.	.	.
16ee-	.	.	.
16cc	.	.	.
16a-	.	.	.
16g	.	.	.
16f#	.	.	.
16ee-	.	.	.
16dd	.	.	.
16cc	.	.	.
16dd	.	.	.
16b-	.	.	.
16g	.	.	.
16fn	.	.	.
=89	=89	=89	=89
16G	1r	1r	1r
16e-	.	.	.
16g	.	.	.
16bn	.	.	.
16cc	.	.	.
16ee-	.	.	.
16a-	.	.	.
16g	.	.	.
16An	.	.	.
16c	.	.	.
16f#	.	.	.
16an	.	.	.
16cc	.	.	.
16ee-	.	.	.
16ff#	.	.	.
16aa	.	.	.
=90	=90	=90	=90
16B-	1r	1r	1r
16d	.	.	.
16g	.	.	.
16b-	.	.	.
16dd	.	.	.
16ff#	.	.	.
16gg	.	.	.
16bb-	.	.	.
16c	.	.	.
16e-	.	.	.
16g	.	.	.
16cc	.	.	.
16ee-	.	.	.
16gg	.	.	.
16aa	.	.	.
16ccc	.	.	.
=91	=91	=91	=91
16d	1r	1r	1r
16ccc	.	.	.
16bb-	.	.	.
16dd	.	.	.
16cc#	.	.	.
16bb-	.	.	.
16aa	.	.	.
16ccn	.	.	.
16bn	.	.	.
16aa	.	.	.
16gg	.	.	.
16b-	.	.	.
16a	.	.	.
16gg	.	.	.
16ff	.	.	.
16a-	.	.	.
=92	=92	=92	=92
16g	1r	1r	1r
16ff	.	.	.
16ee-	.	.	.
16g	.	.	.
16f#	.	.	.
16ee-	.	.	.
16dd	.	.	.
16fn	.	.	.
16en	.	.	.
{16dd	.	.	.
16cc	.	.	.
16bn	.	.	.
16cc}	.	.	.
{16e-	.	.	.
16d	.	.	.
16c}	.	.	.
=93	=93	=93	=93
4.d	4.cc	[{4.ff#	2.r
8r	8r	64ff#]	.
.	.	64gg	.
.	.	64aa	.
.	.	64ff#	.
.	.	64gg	.
.	.	64aa	.
.	.	64cc	.
.	.	64dd	.
2r	2r	64ee-	.
.	.	64cc	.
.	.	64dd	.
.	.	64ee-	.
.	.	64a	.
.	.	64b-	.
.	.	64cc	.
.	.	64a	.
.	.	64b-	.
.	.	64cc	.
.	.	64f#	.
.	.	64g	.
.	.	64a	.
.	.	64f#	.
.	.	64g	.
.	.	64a}	.
.	.	8d	8r
.	.	8cc#	8gg
=94	=94	=94	=94
8d	2r	8a	[{16gg
.	.	.	32gg]
.	.	.	32aa
8r	.	8r	32gg
.	.	.	32ff#
.	.	.	64gg
.	.	.	64een
.	.	.	32ff#}
4r	.	4r	8.ff#T
.	.	.	16gg
2G	2d	2b	2gg
==	==	==	==
*-	*-	*-	*-
